base/src/assets/images/model/mesh/ic_m6s-sfp.svg

<?xml version="1.0" encoding="UTF-8"?>
<svg width="70px" height="70px" viewBox="0 0 70 70" version="1.1" xmlns="http://www.w3.org/2000/svg" xmlns:xlink="http://www.w3.org/1999/xlink">
    <title>icon/ic_mesh_m6ssfp</title>
    <g id="icon/ic_mesh_m6ssfp" stroke="none" stroke-width="1" fill="none" fill-rule="evenodd">
        <path d="M24.4111511,0.314589975 L24.641,0.326 L48.8681766,2.46998647 C50.4890723,2.61366517 51.8239759,3.78401331 52.1895061,5.35490055 L52.2300991,5.55330231 L52.4816436,6.99958998 L65,7 C65.5522847,7 66,7.44771525 66,8 L66,21.5571249 C66,22.0360004 65.6605079,22.4476591 65.1903919,22.5388331 L55.2086436,24.47459 L55.3404958,25.5615809 L55.4680793,26.7201332 L55.572348,27.7838974 L55.6532793,28.7530498 L55.6942572,29.3466763 L55.7248463,29.8983836 L55.7450399,30.408224 L55.7548314,30.8762498 L55.7542141,31.302513 L55.75,31.5 L55.7483854,54.6614723 L55.7351376,55.0129457 C55.7318162,55.0745673 55.7279379,55.1377131 55.7235027,55.2023872 L55.6902063,55.6088055 C55.6835426,55.6796097 55.6763217,55.7519507 55.6685433,55.8258326 L55.6151834,56.287649 L55.5484394,56.7866491 L55.4683047,57.3230343 L55.3747725,57.8970063 L55.2093395,58.8288796 L55.0822845,59.4976992 L54.8665359,60.5727883 L54.620568,61.7347131 L54.3443581,62.9841534 L54.1434059,63.866069 L53.7011222,65.7482997 C53.5514573,66.3739761 53.0705687,66.8670882 52.4488452,67.0324078 C52.2185516,67.0936441 51.9830597,67.1538334 51.7423662,67.2129771 L51.0046785,67.3872723 C50.7535791,67.4443259 50.4972752,67.5003349 50.2357637,67.5553007 L49.4356033,67.7170695 C49.2996384,67.7435098 49.1623708,67.7696895 49.0238002,67.7956089 L48.1767369,67.948002 L47.298382,68.0941539 L46.388717,68.2340716 C46.234496,68.2568722 46.0789696,68.2794133 45.9221375,68.301695 L44.9654729,68.4322754 C44.8034163,68.4535206 44.6400532,68.4745069 44.4753832,68.4952342 L43.4716776,68.6164936 L42.4365881,68.7315481 L41.3700965,68.840405 L40.2721843,68.9430716 L39.1428331,69.0395551 L37.9820244,69.129863 L36.7897399,69.2140024 L35.565961,69.2919806 L34.3106694,69.363805 L33.0238467,69.4294827 L31.7054744,69.4890212 L30.3555341,69.5424277 L28.2713933,69.6110559 L26.8424524,69.6491643 L25.3818789,69.6811663 L23.8896546,69.707069 L21.5919323,69.734503 L20.0205,69.7456796 C19.3352492,69.7492457 18.6879818,69.567825 18.1287283,69.245957 L18,69.25 L13.5,69.25 C12.5750061,69.25 11.8189913,68.5327474 11.7544625,67.6262611 L11.7500964,67.481636 L12.0071096,43 L12.0025112,42.5939657 L11.9881505,42.1906811 L11.9631799,41.7772868 L11.9267516,41.3409232 L11.8780177,40.8687311 L11.8161304,40.3478508 L11.740242,39.7654229 L11.4878401,37.9308963 L11.3989519,37.2204974 L11.3344853,36.6150218 L11.3036014,36.2504396 L11.281361,35.9036561 L11.2668799,35.5631378 L11.2577726,35.0388779 L11.2496436,31.9262434 L11.2536641,28.9494715 L11.2706391,26.1517334 L11.307796,23.106416 L11.3628154,20.3768891 L11.3968743,19.1224278 L11.4489442,17.5569029 L11.4929128,16.4588667 L11.557979,15.0901204 L11.6494652,13.5215259 L11.7519756,12.0970515 L11.8417356,11.0511346 C11.8494983,10.9672032 11.8573312,10.8840523 11.8652339,10.8016616 C11.8791569,10.6565057 11.9111681,10.513659 11.9605232,10.3764432 C12.16178,9.81691429 12.4229093,9.22988962 12.7566537,8.57530168 L13.0608008,7.99674567 C13.114555,7.89725048 13.1698653,7.79614281 13.2267691,7.69330586 L13.5876098,7.05459818 C13.6510357,6.94437682 13.7161294,6.83219254 13.7829279,6.71792853 L14.2044743,6.00645315 C14.4670533,5.568444 14.7860986,5.07647402 15.1259091,4.58073621 L15.5413641,3.98725465 C16.172643,3.10395653 16.8249324,2.27350082 17.2900234,1.78861315 C17.6044484,1.46080466 18.0322718,1.26971339 18.4817908,1.25143998 L18.6511984,1.2527588 L22.1641263,1.45016669 C22.5829892,0.871648522 23.2130343,0.477829942 23.9163305,0.354515167 L24.1002027,0.327527524 L24.2520508,0.315535907 L24.4111511,0.314589975 Z M24.881,3.859 L24.8120415,4.03284578 C24.3342953,5.18867663 23.7933006,6.29995589 23.1890763,7.36627582 C22.4821581,8.61382742 21.7244459,9.80045016 20.9159064,10.9258625 L20.7986436,11.08459 L20.8385646,12.1876529 L20.8900349,13.9506651 C20.9052034,14.5458367 20.9183839,15.1485096 20.9295767,15.7586853 L20.9571924,17.6117219 C20.9608013,17.9243132 20.9639134,18.2387805 20.9665287,18.555124 L20.9762594,20.4757011 L20.9740698,22.4413158 C20.9727116,22.7726719 20.9708568,23.1059049 20.9685055,23.4410149 L20.9484395,25.4742019 C20.9441022,25.816821 20.9392685,26.1613176 20.9339383,26.5076919 L20.8960011,28.6084701 L20.8461526,30.7543197 C20.8275514,31.4771157 20.8069655,32.2074251 20.784395,32.9452492 L20.7490511,34.0576215 C20.7293849,34.6545713 20.6759026,35.281474 20.5911805,35.9613335 L20.53019,36.4233316 L20.4603424,36.9003381 L20.3786831,37.4142315 L19.9388721,39.9885394 L19.8354669,40.6615669 L19.7859597,41.0609422 L19.7595543,41.3856408 L19.7513434,41.607323 L19.7507741,66.0688578 C19.7925501,66.1745738 19.892611,66.2452398 20.002507,66.2452398 C20.2622252,66.2439845 20.5206309,66.2424858 20.7777238,66.2407401 L23.0561018,66.2183625 L24.5356034,66.1960449 L26.6956833,66.151488 L28.0962611,66.114407 L29.4652365,66.0714335 L30.8025909,66.0225746 L32.1083056,65.9678377 L33.3823618,65.9072301 L34.6247409,65.8407591 L35.8354241,65.768432 L37.0143927,65.6902559 L38.7233397,65.5620413 L39.8229399,65.469275 L40.89076,65.3706855 L41.9267813,65.2662799 L42.930985,65.1560655 L43.9033524,65.0400497 L44.8438648,64.9182396 C45.1520577,64.8766714 45.4549384,64.8341387 45.7525036,64.7906428 L46.6292499,64.6572663 L47.4740851,64.5181175 L48.2869904,64.3732037 C48.4198128,64.3485714 48.551304,64.3236992 48.6814635,64.2985872 L49.446439,64.1450396 C49.8209341,64.0668285 50.183438,63.9864623 50.541,63.901 L50.8211823,62.6930042 L51.0115297,61.8481912 L51.2716036,60.656947 L51.501119,59.5575375 L51.700051,58.5507103 L51.8683746,57.6372129 L51.9635734,57.0804336 L52.0451501,56.565688 L52.1130972,56.0931974 L52.1674075,55.6631833 L52.2080736,55.2758673 L52.235088,54.9314708 C52.2418168,54.8238498 52.246269,54.723419 52.2484435,54.6302153 L52.25,54.5 L52.250701,31.4504736 C52.2523157,31.3934386 52.2535202,31.3345948 52.2543143,31.2739456 L52.2543143,30.8884108 L52.2441323,30.4597005 L52.2242476,29.9879705 L52.1944908,29.4733768 L52.1548548,28.9160752 L52.1053323,28.3162215 L52.0124959,27.3369966 L51.938226,26.6314444 L51.8540445,25.8838856 L51.7286436,24.84959 L39.8096081,22.5388331 C39.3394921,22.4476591 39,22.0360004 39,21.5571249 L39,8 C39,7.44771525 39.4477153,7 40,7 L48.9286436,6.99958998 L48.783447,6.16206229 C48.7637385,6.05063648 48.671764,5.96629957 48.5593052,5.95633104 L24.881,3.859 Z M19.313,4.795 L19.2465102,4.87861374 C18.6474179,5.63230794 17.8836792,6.7112871 17.346867,7.57594902 L17.0128357,8.13069103 L16.6541647,8.7438249 L16.3326946,9.31114571 C16.2316448,9.49293619 16.1366551,9.66756975 16.0475855,9.83552496 L15.797997,10.3198342 C15.6432583,10.6299884 15.5116399,10.9153437 15.4020218,11.1797286 L15.3277401,11.363952 L15.2403631,12.3814724 L15.1595997,13.4824802 L15.0856045,14.6746425 L15.0028629,16.3047117 L14.9446598,17.7300042 L14.8937261,19.2713691 L14.8405166,21.3729821 L14.8065032,23.2035423 L14.7749322,25.6909085 L14.7558044,28.4135466 L14.7496638,30.7711157 L14.7546131,34.2293297 L14.7616344,35.3118363 L14.7786197,35.7396509 L14.7986187,36.0366457 L14.843768,36.525169 L14.9096636,37.0957536 L15.0347839,38.0433423 L15.2570205,39.661318 L15.3321585,40.2666435 L15.3927383,40.8178384 L15.4395738,41.3294487 C15.4462796,41.4122265 15.4524466,41.493961 15.4580919,41.5749553 L15.4858371,42.0544625 C15.489463,42.133708 15.4926009,42.2128193 15.4952679,42.2920996 L15.5057542,42.7722321 L15.5070133,43.018364 L15.268,65.75 L16.2496436,65.74959 L16.25,41.6510733 L16.2555958,41.3545207 L16.2637709,41.162127 L16.2849685,40.8652648 L16.3192486,40.5389962 L16.3898969,40.0203491 L16.4948204,39.3585148 L16.9222579,36.8632438 L17.0318547,36.1622889 L17.1180445,35.5285211 C17.1904255,34.9476943 17.2350691,34.4243958 17.2509489,33.9423785 L17.3180467,31.7492498 C17.3282466,31.3874983 17.337955,31.027632 17.347172,30.6696509 L17.3965766,28.5443894 L17.4341887,26.4643833 L17.4600105,24.429641 L17.4740443,22.4401711 L17.4762924,20.4959819 L17.4667571,18.5970819 C17.4487597,16.4081206 17.4067092,14.311642 17.3406217,12.3077066 L17.2780892,10.6127128 C17.2615631,10.2087706 17.3854042,9.81156569 17.6285696,9.48859052 C18.5310938,8.28984746 19.3695797,7.00740712 20.1439697,5.640783 C20.2884814,5.38575236 20.4289553,5.1276727 20.5653824,4.86656081 L19.313,4.795 Z M32.2454079,21.607242 L39.0570316,29.8578285 C39.4086464,30.2837223 40.0389416,30.3439373 40.4648353,29.9923225 C40.5636072,29.9107772 40.6457938,29.811016 40.7069269,29.6984626 L43.4150868,24.7124145 L41.1996692,32.3148174 C41.0672276,32.7693026 41,33.2402932 41,33.7136827 L41,51.9706767 C41,52.6378043 41.2223666,53.2858999 41.6319433,53.8124986 L45.2,58.4 L40.5551314,54.4697266 C40.2241718,54.1896839 39.7504593,54.154798 39.382046,54.3833363 L31.6180639,59.1995791 L37.9293487,53.8991662 C38.6080712,53.329154 39,52.488189 39,51.6018605 L39,34.3708028 C39,33.4734902 38.7585255,32.5927126 38.3009065,31.8208611 L32.2454079,21.607242 Z M45.8380582,10.8856201 C45.2146451,10.8856201 44.6603544,10.9928284 44.1751859,11.2072449 C43.6900175,11.4216614 43.3092496,11.7213898 43.0328825,12.1064301 C42.7565153,12.4914703 42.6173551,12.9425049 42.615402,13.4595337 C42.615402,14.1031494 42.8242948,14.6227112 43.2420805,15.0240784 C43.6598661,15.4254456 44.2888639,15.7103882 45.1290739,15.8789062 L46.0226285,16.0581665 C46.5480192,16.1655884 46.9230192,16.3008881 47.1476285,16.4640656 C47.3722379,16.627243 47.4845426,16.8506775 47.4845426,17.1343689 C47.4845426,17.355072 47.4191587,17.5440063 47.2883909,17.7070312 C47.1576231,17.8700562 46.9734952,17.9964447 46.7360075,18.0861969 C46.4985197,18.1759491 46.2167814,18.2208252 45.8907926,18.2208252 C45.5690763,18.2208252 45.2816617,18.1766968 45.028549,18.0884399 C44.7754362,18.0001831 44.5705717,17.8764648 44.4139555,17.7172852 C44.2573392,17.5581055 44.1609342,17.370636 44.1247404,17.1548767 L44.1140287,17.0896912 L42.4372404,17.0896912 L42.4430997,17.1852722 C42.4766691,17.6996765 42.6358488,18.1418457 42.9206388,18.5117798 C43.2054288,18.8817139 43.5966642,19.165451 44.0943449,19.3629913 C44.5920255,19.5605316 45.176193,19.6593018 45.8468473,19.6593018 C46.556381,19.6593018 47.1656339,19.5506744 47.6746061,19.3334198 C48.1835783,19.1161652 48.5740659,18.8077393 48.8460691,18.4081421 C49.1180723,18.0085449 49.2540739,17.5366516 49.2540739,16.9924622 C49.2540739,16.5439758 49.1634367,16.1656036 48.9821622,15.8514862 C48.8008878,15.5373688 48.5213621,15.2767944 48.143585,15.0697632 C47.7658079,14.8627319 47.2805021,14.7002869 46.6876676,14.582428 L45.7941129,14.4026184 C45.3056486,14.3026428 44.9486692,14.1702271 44.7231748,14.0053711 C44.4976804,13.8405151 44.3849332,13.6237488 44.3849332,13.355072 C44.3849332,13.1459656 44.4435728,12.9675903 44.5608518,12.8140869 C44.6781309,12.6605835 44.8456571,12.5405426 45.0634305,12.4539642 C45.281204,12.3673859 45.5394132,12.3240967 45.8380582,12.3240967 C46.1317594,12.3237915 46.3909147,12.3667755 46.6155241,12.4530487 C46.8401334,12.5393219 47.0211027,12.6606293 47.1584318,12.8169708 C47.2957609,12.9733124 47.3794401,13.1610413 47.4094694,13.3801575 L47.4187162,13.45047 L49.0881803,13.45047 L49.0823209,13.3484802 C49.0532072,12.8582458 48.9055173,12.4280701 48.6392515,12.0579529 C48.3729856,11.6878357 48.0028989,11.3999176 47.5289915,11.1941986 C47.055084,10.9884796 46.4914396,10.8856201 45.8380582,10.8856201 Z M56.0120668,11.0449219 L50.4749575,11.0449219 L50.4749575,19.5 L52.2444887,19.5 L52.2444887,16.171875 L55.6810122,16.171875 L55.6810122,14.7714844 L52.2444887,14.7714844 L52.2444887,12.5039062 L56.0120668,12.5039062 L56.0120668,11.0449219 Z M60.6063944,11.0449219 L57.1948649,11.0449219 L57.1948649,19.5 L58.9643961,19.5 L58.9638649,16.8359219 L60.6063944,16.8369141 C61.2020975,16.8369141 61.7221171,16.7172852 62.166453,16.4780273 C62.6107889,16.2387695 62.9569803,15.9023438 63.2050272,15.46875 C63.4530741,15.0351562 63.5770975,14.5283203 63.5770975,13.9482422 L63.5770975,13.9365234 C63.5770975,13.3564453 63.4530741,12.8496094 63.2050272,12.4160156 C62.9569803,11.9824219 62.6107889,11.6455078 62.166453,11.4052734 C61.7221171,11.1650391 61.2020975,11.0449219 60.6063944,11.0449219 Z M60.1757303,12.4482422 C60.6835428,12.4482422 61.0785624,12.5766602 61.3607889,12.8334961 C61.6430155,13.090332 61.7841288,13.4599609 61.7841288,13.9423828 L61.7841288,13.9541016 C61.7841288,14.4326172 61.6430155,14.8017578 61.3607889,15.0615234 C61.0785624,15.3212891 60.6835428,15.4511719 60.1757303,15.4511719 L58.9638649,15.4509219 L58.9638649,12.4479219 Z" id="形状结合" fill="#979797" fill-rule="nonzero"></path>
    </g>
</svg>

<svg xmlns="http://www.w3.org/2000/svg" width="70" height="70"><path fill="#979797" fill-rule="nonzero" d="m24.411.315.23.011L48.868 2.47a3.75 3.75 0 0 1 3.322 2.885l.04.198L52.482 7H65a1 1 0 0 1 1 1v13.557a1 1 0 0 1-.81.982l-9.981 1.936.131 1.087.128 1.158.104 1.064.081.969.041.594.03.551.021.51.01.468v.427l-.005.197-.002 23.161-.013.352-.011.19-.034.406-.021.217-.054.462-.067.499-.08.536-.093.574-.166.932-.127.669-.215 1.075-.246 1.162-.277 1.25-.2.881-.443 1.882a1.75 1.75 0 0 1-1.252 1.284c-.23.062-.466.122-.707.181l-.737.174a48.44 48.44 0 0 1-.77.168l-.8.162c-.135.027-.273.053-.411.079l-.847.152-.879.146-.91.14-.466.068-.957.13c-.162.022-.325.043-.49.063l-1.003.121-1.035.116-1.067.108-1.098.103-1.13.097-1.16.09-1.192.084-1.224.078-1.255.072-1.287.065-1.319.06-1.35.053-2.084.07-1.429.037-1.46.032-1.492.026-2.298.028-1.572.01a3.744 3.744 0 0 1-1.891-.499L18 69.25h-4.5a1.75 1.75 0 0 1-1.746-1.624l-.004-.144L12.007 43l-.004-.406-.015-.403-.025-.414-.036-.436-.049-.472-.062-.521-.076-.583-.252-1.834-.089-.71-.065-.606-.03-.365-.023-.346-.014-.34-.01-.525-.007-3.113.004-2.977.017-2.797.037-3.046.055-2.73.034-1.254.052-1.565.044-1.098.065-1.369.091-1.568.103-1.425.09-1.046.023-.25a1.75 1.75 0 0 1 .096-.425c.2-.56.462-1.146.796-1.8l.304-.58.166-.303.36-.638.196-.337.421-.712c.263-.438.582-.93.922-1.425l.415-.594c.632-.883 1.284-1.713 1.749-2.198a1.75 1.75 0 0 1 1.192-.538l.17.002 3.512.197A2.753 2.753 0 0 1 23.916.355L24.1.328l.152-.012.16-.001Zm.47 3.544-.069.174a29.995 29.995 0 0 1-1.623 3.333 39.303 39.303 0 0 1-2.273 3.56l-.117.159.04 1.103.051 1.763c.015.595.028 1.198.04 1.808l.027 1.853.01.943.01 1.92-.003 1.966-.005 1-.02 2.033-.015 1.034-.038 2.1-.05 2.146c-.018.723-.039 1.453-.062 2.191l-.035 1.113c-.02.597-.073 1.223-.158 1.903l-.06.462-.07.477-.082.514-.44 2.575-.104.673-.049.399-.026.325-.009.221V66.07a.274.274 0 0 0 .252.176l.775-.004 2.278-.023 1.48-.022 2.16-.045 1.4-.037 1.37-.043 1.337-.048 1.305-.055 1.274-.06 1.243-.067 1.21-.073 1.18-.078 1.708-.128 1.1-.093 1.068-.098 1.036-.105 1.004-.11.972-.116.94-.122c.31-.041.612-.084.91-.127l.876-.134.845-.139.813-.145a55.6 55.6 0 0 0 .394-.074l.765-.154a38.95 38.95 0 0 0 1.095-.244l.28-1.208.19-.845.26-1.191.23-1.1.2-1.006.167-.914.096-.557.081-.514.068-.473.054-.43.041-.387.027-.345a7.74 7.74 0 0 0 .013-.3l.002-.131V31.45c.002-.057.004-.115.004-.176v-.386l-.01-.428-.02-.472-.03-.515-.04-.557-.049-.6-.093-.979-.074-.706-.084-.747-.125-1.034-11.92-2.311a1 1 0 0 1-.809-.982V8a1 1 0 0 1 1-1h8.929l-.146-.838a.25.25 0 0 0-.224-.206L24.881 3.86Zm-5.568.936-.066.084c-.6.753-1.363 1.832-1.9 2.697l-.334.555-.359.613-.321.567c-.101.182-.196.357-.285.525l-.25.484c-.155.31-.286.595-.396.86l-.074.184-.088 1.017-.08 1.101-.074 1.193-.083 1.63-.058 1.425-.051 1.541-.053 2.102-.034 1.83-.032 2.488-.02 2.723-.005 2.357.005 3.458.007 1.083.017.428.02.297.045.488.066.57.125.948.222 1.618.075.606.06.55.048.512.018.246.028.48.01.237.01.48.001.246-.239 22.732h.982V41.65l.006-.296.008-.193.021-.297.034-.326.07-.519.106-.661.427-2.496.11-.7.086-.634c.072-.581.117-1.105.133-1.587l.067-2.193.03-1.08.049-2.125.037-2.08.026-2.034.014-1.99.002-1.944-.01-1.899c-.017-2.189-.06-4.285-.125-6.29l-.063-1.694a1.75 1.75 0 0 1 .35-1.124 35.411 35.411 0 0 0 2.516-3.848c.144-.255.285-.513.421-.774l-1.252-.072Zm12.932 16.812 6.812 8.25a1 1 0 0 0 1.65-.159l2.708-4.986-2.215 7.603a5 5 0 0 0-.2 1.399V51.97a3 3 0 0 0 .632 1.841L45.2 58.4l-4.645-3.93a1 1 0 0 0-1.173-.087L31.618 59.2l6.311-5.3A3 3 0 0 0 39 51.601V34.37a5 5 0 0 0-.7-2.55l-6.055-10.214Zm13.593-10.721c-.623 0-1.178.107-1.663.321-.485.215-.866.514-1.142.9-.276.384-.416.836-.418 1.353 0 .643.21 1.163.627 1.564.418.401 1.047.686 1.887.855l.894.18c.525.107.9.242 1.125.405a.784.784 0 0 1 .337.67c0 .221-.066.41-.197.573-.13.163-.315.29-.552.38a2.39 2.39 0 0 1-.845.134 2.61 2.61 0 0 1-.862-.133 1.57 1.57 0 0 1-.615-.37 1.028 1.028 0 0 1-.29-.563l-.01-.065h-1.677l.006.095c.034.515.193.957.478 1.327.284.37.676.653 1.173.851.498.198 1.082.296 1.753.296.71 0 1.319-.108 1.828-.326.509-.217.9-.525 1.171-.925.272-.4.408-.871.408-1.416 0-.448-.09-.826-.272-1.14-.181-.315-.46-.575-.838-.782-.378-.207-.863-.37-1.456-.488l-.894-.18c-.488-.1-.845-.232-1.07-.397a.769.769 0 0 1-.34-.65c0-.209.06-.387.177-.54.117-.154.285-.274.502-.361.218-.087.476-.13.775-.13.294 0 .553.043.778.129.224.086.405.208.542.364.138.156.221.344.251.563l.01.07h1.67l-.007-.102c-.029-.49-.176-.92-.443-1.29-.266-.37-.636-.658-1.11-.864-.474-.206-1.038-.308-1.69-.308Zm10.174.159h-5.537V19.5h1.77v-3.328h3.436v-1.4h-3.437v-2.268h3.768v-1.46Zm4.594 0h-3.411V19.5h1.77l-.001-2.664h1.642c.596 0 1.116-.119 1.56-.358.445-.24.791-.576 1.039-1.01.248-.433.372-.94.372-1.52v-.011c0-.58-.124-1.087-.372-1.521a2.593 2.593 0 0 0-1.039-1.01c-.444-.241-.964-.361-1.56-.361Zm-.43 1.403c.508 0 .903.129 1.185.385.282.257.423.627.423 1.11v.011c0 .479-.141.848-.423 1.108-.282.26-.677.39-1.185.39l-1.212-.001v-3.003Z"/></svg>
